X:1
T:Charles Guiteau
M:4/4
L:1/4
K:C
 G,| C C C E| G3 G| G G F E| D3 B,| G, B, D E| F F2 G| A G D ^D| E3|\
 G,| C C C E| G3 G| A G F E| D3 B,/2B,/2| G, B, D E| F D2 E| F D B, D|\
 C3||
